!!!!SEGMENT: pl-kk--kk-i-10--004_pekiel-bartlomiej--quae-est-ista.krn
!!!cenid: 16xx:1191
!!!COM: Pękiel, Bartłomiej
!!!COM-rismid: pe30105642
!!!CDT: <1633-~1670
!!!CNT: Polish
!!!OTL: Quae est ista
!!!PDT:
!!!AGN: Sacred
!!!SMS-siglum: PL-Kk
!!!SMS-shelfmark: Kk.I.10
!!!SMS-shelfwork: 004 W
!!!SMS-variant:
!!!SMS-altvar:
!!!NIFC-rismid: 1001151832
!!!URL-scan: http://repozytorium.nifc.pl/skany/pl-kk-nut--i-10
!!!ONB-nifc: UWAGA: T1 (skan 0011-0012), T2 (0061-0062), B (0110-0111). Następny utwór: Nativitas tua Dei Genitrix
!!!AIN: 3 empty
!!!key:
**kern	**text	**kern	**text	**kern	**text
*part3	*part3	*part2	*part2	*part1	*part1
*staff3	*staff3	*staff2	*staff2	*staff1	*staff1
*Iempty	*	*Iempty	*	*Iempty	*
*I"[Bas]	*	*I"2bus	*	*I"Primus	*
*I'B	*	*I'T 2	*	*I'T 1	*
*clefF4	*	*clefC4	*	*clefC4	*
*k[b-]	*	*k[b-]	*	*k[b-]	*
*g:	*	*g:	*	*g:	*
*M2/1	*	*M2/1	*	*M2/1	*
*met(C)	*	*met(C)	*	*met(C)	*
=1	=1	=1	=1	=1	=1
00r	.	1.G/	Quae	0r	.
.	.	2G/	eſt	.	.
=2-	=2-	=2-	=2-	=2-	=2-
!	!	!LO:TX:t=P:problem=zapis niejednoznaczny	!	!	!
.	.	1A\	is-	1r	.
!	!	!	!	!LO:TX:t=P:problem=2\right&colon; global	!
.	.	1B-\	-ta	1.G/	Quae
=3-	=3-	=3-	=3-	=3-	=3-
0r	.	0r	.	.	.
.	.	.	.	2G/	eſt
.	.	.	.	1A\	is-
=4-	=4-	=4-	=4-	=4-	=4-
1.GG/	Quae	2r	.	1B-\	-ta
.	.	4G/	pro-	.	.
.	.	4A/	.	.	.
.	.	4B-\	-gre-	1r	.
.	.	4G/	.	.	.
2GG/	eſt	1d\	.	.	.
=5-	=5-	=5-	=5-	=5-	=5-
1AA/	is-	.	.	2r	.
*	*	*2\right	*	*	*
!	!	!LO:TX:t=P:♯below:problem	!	!	!
.	.	2c#X\	-di-	4A/	quae
.	.	.	.	4G/	pro-
2BB-/	-ta	1d\	-tur	4F/	-gre-
.	.	.	.	8G/L	.
.	.	.	.	8A/J	.
4GG/	quae	.	.	1B-\	.
4AA/	pro-	.	.	.	.
=6-	=6-	=6-	=6-	=6-	=6-
4BB-/	-gre-	0r	.	.	.
4GG/	.	.	.	.	.
1D\	.	.	.	2A/	-di-
.	.	.	.	1A\	-tur
2C#X/	.	.	.	.	.
=7-	=7-	=7-	=7-	=7-	=7-
2.D/	.	2r	.	2r	.
.	.	1D/	Quae	4D/	quae
4Cny/	.	.	.	4E/	pro-
2.BB-/	.	.	.	4F/	-gre-
.	.	.	.	4D/	.
.	.	2D/	eſt	1d\	.
4BB-/	-di-	.	.	.	.
=8-	=8-	=8-	=8-	=8-	=8-
1AA/	-tur	1E/	is-	.	.
*	*	*	*	*2\right	*
*	*	*	*	*custos:d	*
!	!	!	!	!LO:LB:g=original	!
.	.	.	.	2c#X\	-di-
2.D/	quae	1F/	-ta	1d\	-tur
*custos:BB	*	*	*	*	*
4C/	pro-	.	.	.	.
!LO:LB:g=original	!	!	!	!	!
=9-	=9-	=9-	=9-	=9-	=9-
4BB-/	-gre-	4d\	quae	2r	.
8C/L	.	4cny\	.	.	.
8D/J	.	.	.	.	.
4E-X\	.	4B-\	pro-	1G/	quae
4D/	.	8c\L	-gre-	.	.
.	.	8d\J	.	.	.
2C/	.	2e-X\	.	.	.
2BB-/	.	2d\	.	2G/	eſt
=10-	=10-	=10-	=10-	=10-	=10-
2.AA/	.	2c\	.	1A\	is-
.	.	2A/	-di-	.	.
4AA/	-di-	.	.	.	.
2GG/	-tur	2D/	-tur	1B-\	-ta
4GG/	quae	1G/	Quae	.	.
4AA/	pro-	.	.	.	.
=11-	=11-	=11-	=11-	=11-	=11-
4BB-/	-gre-	.	.	1r	.
4GG/	.	.	.	.	.
1G\	.	2G/	eſt	.	.
*	*	*	*	*	*ij
.	.	(<1.A\	i-	1.D/	quae
4F#X\	.	.	.	.	.
4Eny\	.	.	.	.	.
=12-	=12-	=12-	=12-	=12-	=12-
*2\right	*	*	*	*	*
2F#n\	.	.	.	.	.
!	!	!LO:TX:t=P:problem=♯above	!	!	!
!	!	!LO:N:acc=#	!	!	!
2F#\	-di-	2Bn\)	.	2D/	eſt
1G\,<	-tur	2c\	-sta	1E/	is-
.	.	4c\	quae	.	.
.	.	4B\	pro-	.	.
=13-	=13-	=13-	=13-	=13-	=13-
4Fny\	quae	4A\	-gre-	1F/	-ta
*	*	*	*	*	*Xij
4E\	pro-	8B-y\L	.	.	.
.	.	8c\J	.	.	.
4D\	-gre-	4d\	.	.	.
8E\L	.	4c\	.	.	.
8F\J	.	.	.	.	.
4G\	.	4B-\	.	1r	.
4A\	.	4c\	.	.	.
*custos:A	*	*	*	*	*
2B-\	.	1d\	.	.	.
!LO:LB:g=original	!	!	!	!	!
=14-	=14-	=14-	=14-	=14-	=14-
2A\	.	.	.	2r	.
2AA/	-di-	2c#X\	-di-	4A/	quae
.	.	.	.	4G/	pro-
2D/	-tur	2d\	-tur	4F/	-gre-
.	.	.	.	8G/L	.
.	.	.	.	8A/J	.
1BB-/	Quae	2r	.	4B-\	.
.	.	.	.	4cny\	.
=15-	=15-	=15-	=15-	=15-	=15-
.	.	2.F/	Quae	4d\	.
.	.	.	.	4B-\	.
2AA/	eſt	.	.	1f\	.
*	*	*custos:g	*	*	*
.	.	4F/	eſt	.	.
!	!	!LO:LB:g=original	!	!	!
1GG/	is-	1G/	is-	.	.
.	.	.	.	2e\	-di-
=16-	=16-	=16-	=16-	=16-	=16-
1FF/	-ta	1A\	-ta	1f\	-tur
1F\	quae	0r	.	1r	.
=17-	=17-	=17-	=17-	=17-	=17-
0D\	pro-	.	.	1.d\	quae
.	.	1r	.	.	.
.	.	.	.	2d\	pro-
!	!	!	!	!LO:LB:g=original	!
=18-	=18-	=18-	=18-	=18-	=18-
2.AA/	-gre-	2r	.	2e\	-gre-
.	.	4A\	quae	2f\	.
!	!	!LO:TX:t=P:problem=♯above	!	!	!
!	!	!LO:N:acc=#	!	!	!
4AA/	-di-	4Bn\	pro-	.	.
!	!	!LO:TX:t=P:problem=♯above	!	!	!
2AA/	-tur	4c#X\	-gre-	2e\	.
.	.	4A\	.	.	.
2FF/	pro-	4.d\	.	2.d\	.
.	.	8d\	-di-	.	.
=19-	=19-	=19-	=19-	=19-	=19-
2.AA/	-gre-	2A,<\	-tur	.	.
!	!	!	!	!LO:TX:t=P:problem=♯above	!
!	!	!	!	!LO:N:acc=#	!
.	.	.	.	8c#X\L	.
!	!	!	!	!LO:SIC:v:s=8Bn/J	!
.	.	.	.	8B-\J	.
!	!	!	!	!LO:TX:t=P:problem=♯above	!
!	!	!	!	!LO:N:acc=#	!
.	.	2A\	qua-	4.c#X\	.
4AA/	-di-	.	.	.	.
.	.	.	.	8c#\	-di-
2D,</	-tur	4F#X/	-si	2d\	-tur
.	.	4D/	au-	.	.
2D/	qua-	1d\	-ro-	2r	.
=20-	=20-	=20-	=20-	=20-	=20-
4BB-/	-si	.	.	1r	.
4GG/	au-	.	.	.	.
2G\	-ro-	4d\	-ra	.	.
.	.	4d\	con-	.	.
4E\	-ra	1cny\	-sur-	2cny\	qua-
4C/	con-	.	.	.	.
*custos:D	*	*	*	*	*
2F\	-sur-	.	.	4A/	-si
.	.	.	.	4F/	au-
!LO:PB:g=original	!	!	!	!	!
=21-	=21-	=21-	=21-	=21-	=21-
4D,<\	-gens	4d,<\	-gens	2f\	-ro-
4D\	con-	4d\	qua-	.	.
2E-X\	-sur-	4B-y\	-si	4e-X\	-ra
.	.	4G/	au-	4e-\	qua-
4BB-,</	-gens	2d\	-ro-	4d\	-si
4BB-/	qua-	.	.	4D/	au-
4AA/	-si	2.c\	-ra	8F/L	-ro-
.	.	.	.	8G/	.
4FF/	au-	.	.	8A/	.
.	.	.	.	8B-/J	.
=22-	=22-	=22-	=22-	=22-	=22-
2C/	-ro-	.	.	4G/	.
.	.	4c\	con-	4c\	.
4GG/	-ra	2B-\	-sur-	2d\	.
4G\	con-	.	.	.	.
4F\	-sur-	1A\	-gens	8d\	-ra
.	.	.	.	8A\	con-
8Eny\L	.	.	.	2d\	-sur-
8D\J	.	.	.	.	.
!LO:TX:t=P:problem=kreska pseudotaktowa	!	!	!	!	!
2A\	.	.	.	.	.
!	!	!	!	!LO:TX:t=P:problem=♯above	!
.	.	.	.	4c#X\	.
!	!	!LO:LB:g=original	!	!LO:LB:g=original	!
=23-	=23-	=23-	=23-	=23-	=23-
!	!	!	!	!LO:TX:t=P:problem=kreska pseudotaktowa	!
2D,</	-gens	2r	.	1d\	-gens
2D/	Pul-	2d\	Pul-	.	.
4E\	-chra	4c\	-chra	2r	.
4F#X\	ut	4A/	ut	.	.
2G\	lu-	2B-\	lu-	2G/	Pul-
=24-	=24-	=24-	=24-	=24-	=24-
!	!	!	!	!LO:TX:t=P:problem=brak zgodności harmonicznej w tym takcie	!
4D/	-na	4A,</	-na	4A/	-chra
!	!	!	!	!LO:TX:t=P:problem=♯above	!
!	!	!	!	!LO:N:acc=#	!
4D/	ut	4Fny/	ut	4Bn\	ut
4BB-/	lu-	(4G/	lu-	2cny\	lu-
4BB-/	-na	4A/)	.	.	.
4AA/	Pul-	4B-,<\	-na	2F/	-na
*custos:GG	*	*	*	*	*
4FF/	-chra	4B-\	Pul-	.	.
!LO:LB:g=original	!	!	!	!	!
(4GG/	ut	4c\	-chra	2r	.
4AA/)	.	4d\	ut	.	.
=25-	=25-	=25-	=25-	=25-	=25-
2BB-/	lu-	2e-X\	lu-	2r	.
*	*	*	*	*	*ij
2FF/	-na	2d\	-na	2B-y\	pul-
!LO:N:vis=2	!	!	!	!	!
1r	.	0r	.	4A/	-chra
.	.	.	.	4F/	ut
!.	!	!	!	!	!
.	.	.	.	(4G/	lu-
.	.	.	.	4A/)	.
=26-	=26-	=26-	=26-	=26-	=26-
2BB-/	Pul-	.	.	4B-\	-na
.	.	.	.	4B-\	e-
4C/	-chra	.	.	4A/	-le-
4D/	ut	.	.	4F/	-cta
2E-X\	lu-	4r	.	2G/	ut
*	*	*	*ij	*	*
.	.	4G/	pul-	.	.
4D,</	-na	4A/	-chra	4d\	sol
*	*	*	*	*	*Xij
!	!	!LO:TX:t=P:problem=♯above	!	!	!
!	!	!LO:N:acc=#	!	!	!
4D/	ut	4Bn\	ut	4d\	ut
=27-	=27-	=27-	=27-	=27-	=27-
8C/L	lu-	2.c\	lu-	1G/	lu-
8D/	.	.	.	.	.
!LO:TX:t=P:♭above:problem	!	!	!	!	!
8E-X/	.	.	.	.	.
8Fny/J	.	.	.	.	.
2G\	.	.	.	.	.
!	!	!LO:TX:t=P:problem=♯above	!	!	!
!	!	!LO:N:acc=#	!	!	!
.	.	4Bn\	.	.	.
4C/	-na	2c\	-na	2G/	-na
*	*	*	*Xij	*	*
4C/	e-	.	.	.	.
2F\	-lec-	4r	.	2r	.
*	*	*custos:d	*	*	*
.	.	4A/	e-	.	.
!	!	!LO:PB:g=original	!	!	!
=28-	=28-	=28-	=28-	=28-	=28-
4D/	-ta	2d\	-le-	0r	.
4D/	ut	.	.	.	.
!	!	!LO:N:acc=#	!	!	!
2G,<\	sol	4Bn\	-cta	.	.
.	.	4G/	ut	.	.
4C/	e-	2c\	sol	.	.
8c\L	-le-	.	.	.	.
8B-\	.	.	.	.	.
8A\	.	2r	.	.	.
8G\	.	.	.	.	.
8F\	.	.	.	.	.
*custos:D	*	*	*	*	*
8Eny\J	.	.	.	.	.
!LO:LB:g=original	!	!	!	!	!
=29-	=29-	=29-	=29-	=29-	=29-
*	*	*	*ij	*	*
4D/	.	4A/	e-	2r	.
8D/	-cta	4d\	-lec-	.	.
8D/	ut	.	.	.	.
!	!	!LO:N:acc=#	!	!	!
4G\	sol	4Bn\	-ta	4r	.
4GG/	ut	4B\	ut	2G/	ut
2C/	sol	4c\	sol	.	.
*	*	*	*Xij	*	*
.	.	4C/	ter-	2c\	sol
4r	.	4.F/	-ri-	.	.
4FF/	ter-	.	.	4A/	ter-
.	.	8E/	-bi-	.	.
!	!	!	!	!LO:LB:g=original	!
=30-	=30-	=30-	=30-	=30-	=30-
4.BB-/	-ri-	4D/	-lis	4.d\	-[ri-
.	.	4E/	ter-	.	.
8AA/	-bi-	.	.	8c\	-bi-
4GG/	-lis	4.B-y\	-ri-	4B-\	-lis]
*	*ij	*	*	*	*ij
4GG/	ter-	.	.	2G/	ter-
.	.	8A/	-bi-	.	.
4.C/	-ri-	4G/	-lis	.	.
*	*	*	*ij	*	*
.	.	4G/	ter-	4.c\	-ri-
8C/	-bi-	.	.	.	.
4FF/	-lis	8A\L	-ri-	.	.
*	*Xij	*	*	*	*
.	.	8B-\	.	8B-\	-bi-
2F\	ut	8.c\J	.	4A,</	-lis
.	.	16c\	-bi-	.	.
*	*	*	*	*	*Xij
=31-	=31-	=31-	=31-	=31-	=31-
.	.	4A\	-lis	4c\	ut
*	*	*	*Xij	*	*
4E\	caſ-	4r	.	4c\	caſ-
!	!	!LO:LB:g=original	!	!	!
4D/	-tro-	2r	.	4d\	-tro-
4C/	-rum	.	.	4eny\	-rum
4BB-/	a-	1r	.	4f\	a-
8BB-/	-ci-	.	.	8f\	-ci-
8BB-/	-es	.	.	8f\	-es
4.GG/	or-	.	.	4e\	or-
.	.	.	.	4d\	-di-
8GG/	-di-	.	.	.	.
=32-	=32-	=32-	=32-	=32-	=32-
!	!	!	!	!LO:TX:t=P:problem=♯above	!
!	!	!	!	!LO:N:acc=#	!
1AA/	-na-	2r	.	4c#X\	-na-
.	.	.	.	2d\	.
.	.	4.A/	ut	.	.
.	.	.	.	4c#\	.
.	.	8G/	caſ-	.	.
2D\	-ta	4F/	-tro-	2d,<\	-ta
.	.	4E/	-rum	.	.
2r	.	4D/	a-	4d\	ut
.	.	8E/	-ci-	4c#\	caſ-
.	.	8F/	-es	.	.
!LO:LB:g=original	!	!	!	!	!
=33-	=33-	=33-	=33-	=33-	=33-
2r	.	4G/	or-	4B-\	-tro-
.	.	4A/	-di-	4A\	-rum
4G\	ut	8B-\L	-na-	8.G/	a-
.	.	8c\J	.	.	.
.	.	.	.	16G/	-ci-
4F\	caſ-	4d\	.	4A/	-es
!	!	!	!	!LO:PB:g=original	!
4E-X\	-tro-	4e-X\	-ta	4G/	or-
4D/	-rum	4r	.	8A\L	.
.	.	.	.	8B-\J	.
4C/	a-	2r	.	4cny\	.
8C/	-ci-	.	.	4B-\	.
8C/	-es	.	.	.	.
=34-	=34-	=34-	=34-	=34-	=34-
4F\	ut	4A/	ut	4A\	.
4E-X\	caſ-	4G/	caſ-	8B-\L	.
.	.	.	.	8c\J	.
4D/	-tro-	4F/	-tro-	4d\	.
4C/	-rum	4E/	-rum	4e\	-di-
8.BB-/	a-	4D/	a-	8f\	-na-
.	.	.	.	8d\	-ta
16BB-/	-ci-	.	.	.	.
4AA/	-es	8E/	-ci-	8.c\	or-
.	.	8F/	-es	.	.
.	.	.	.	16B-\	-di-
4GG/	or-	4G/	or-	8B-\L	-na-
.	.	.	.	8c\J	.
*	*	*custos:b	*	*	*
4FF#X/	-di-	4A/	-di-	2d\	.
=35-	=35-	=35-	=35-	=35-	=35-
0GG/	-na-	4B-\	-na-	.	.
.	.	4A\	.	4c\	.
.	.	4G/	.	4B-\	.
.	.	4A\	.	4c\	.
.	.	4B-\	.	8d\L	.
.	.	.	.	8e-X\	.
.	.	4A\	.	8c\	.
.	.	.	.	8d\J	.
.	.	8G\L	.	8B-\L	.
.	.	8A\	.	8c\	.
.	.	8B-\	.	8d\	.
.	.	16c\L	.	8e-\J	.
.	.	16B-\JJ	.	.	.
=36-	=36-	=36-	=36-	=36-	=36-
1D\	-ta	1A\	-ta	2d\	-ta
.	.	.	.	4d\	ut
.	.	.	.	4c\	ca-
!	!	!	!	!LO:PB:g=original	!
4G\	ut	1r	.	4B-\	-ſtro-
4F\	caſ-	.	.	4A/	-rum
4E-X\	-tro-	.	.	8G/	a-
.	.	.	.	16G/	-ci-
.	.	.	.	16G/	-es
*custos:C	*	*	*	*	*
4D/	-rum	.	.	8.A\	or-
.	.	.	.	16B-\	-di-
!LO:LB:g=original	!	!	!	!	!
=37-	=37-	=37-	=37-	=37-	=37-
8C/	a-	2r	.	4c\	-na-
16C/	-ci-	.	.	.	.
16C/	-es	.	.	.	.
8.D\	or-	.	.	4B-,<\	-ta
16Eny\	-di-	.	.	.	.
4F\	-na-	4A/	ut	8A\	a-
.	.	.	.	16A\	-ci-
.	.	.	.	16A\	-es
!	!	!	!	!LO:TX:t=P:problem=♯above	!
!	!	!	!	!LO:N:acc=#	!
4E\	.	4G/	caſ-	8Bn\	or-
!	!	!	!	!LO:TX:t=P:problem=♯above	!
.	.	.	.	8c#X\	-di-
4D/	.	4F/	-tro-	8d\L	-na-
.	.	.	.	8F\	.
4C/	.	4E/	-rum	8G\	.
.	.	.	.	8A\J	.
!	!	!LO:N:vis=8	!	!	!
4BB-/	.	4D/	a-	8B\	.
.	.	.	.	8F/	.
!	!	!LO:N:vis=16.	!	!	!
4AA/	.	8.D/	-ci-	8.G/	.
!	!	!LO:N:vis=32	!	!	!
.	.	16D/	-es	16A/	.
=38-	=38-	=38-	=38-	=38-	=38-
2GG/	.	2G/	or-	2B-y\	.
2FF#X/	.	2A/	-di-	2.A/	.
1GG/	.	1B-\	-na-	.	.
.	.	.	.	8G/L	.
.	.	.	.	8F/J	.
.	.	.	.	2G/	.
=39-	=39-	=39-	=39-	=39-	=39-
!	!	!	!	!LO:TX:t=P:problem=♯above	!
1D\;<	-ta	1A\;<	-ta	0F#X/	-ta
1ryy	.	1ryy	.	.	.
==	==	==	==	==	==
*-	*-	*-	*-	*-	*-
!!!system-decoration: [s1,s2,s3]
!!!RDF**kern: > = above
!!!RDF**kern: < = below
!!!EED: Andrzej Borzym
!!!EEV: 2021-07-05
!!!ENC: Andrzej Gręziak
!!!END: 2021-06-24
